src/custom/assets/cow-swap/order-check.svg

<svg fill="none" height="13" viewBox="0 0 13 13" width="13" xmlns="http://www.w3.org/2000/svg"><path d="m13 6.5c0 3.5899-2.9101 6.5-6.5 6.5-3.58986 0-6.5-2.9101-6.5-6.5 0-3.58986 2.91014-6.5 6.5-6.5 3.5899 0 6.5 2.91014 6.5 6.5zm-7.25185 3.4417 4.82255-4.82258c.1638-.16376.1638-.42929 0-.59305l-.59302-.59305c-.16375-.16378-.42929-.16378-.59307 0l-3.933 3.93298-1.83622-1.83623c-.16376-.16376-.42929-.16376-.59307 0l-.59305.59305c-.16376.16376-.16376.42929 0 .59304l2.72581 2.72581c.16378.16383.42928.16383.59307.00003z" fill="#3b7848"/></svg>

<svg width="13" height="13" viewBox="0 0 13 13" fill="none" xmlns="http://www.w3.org/2000/svg">
<path d="M13 6.5C13 10.0899 10.0899 13 6.5 13C2.91014 13 0 10.0899 0 6.5C0 2.91014 2.91014 0 6.5 0C10.0899 0 13 2.91014 13 6.5ZM5.74815 9.9417L10.5707 5.11912C10.7345 4.95536 10.7345 4.68983 10.5707 4.52607L9.97768 3.93302C9.81393 3.76924 9.54839 3.76924 9.38461 3.93302L5.45161 7.866L3.61539 6.02977C3.45163 5.86601 3.1861 5.86601 3.02232 6.02977L2.42927 6.62282C2.26551 6.78658 2.26551 7.05211 2.42927 7.21586L5.15508 9.94167C5.31886 10.1055 5.58436 10.1055 5.74815 9.9417Z" fill="#3B7848"/>
</svg>
